packages/core/src/svgs/ampl.svg

<svg width="24" height="24" viewBox="0 0 24 24" fill="none" xmlns="http://www.w3.org/2000/svg">
<g clip-path="url(#clip0_31_5959)">
<path d="M0 0H24V24H0V0Z" fill="url(#paint0_linear_31_5959)"/>
<path d="M16.1289 14.0916C16.8935 15.9104 17.3898 16.2859 17.9268 16.2859C18.0245 16.2859 18.0245 16.7144 17.9268 16.7144H13.8001C13.7024 16.7144 13.7024 16.2859 13.8001 16.2859C14.6949 16.2859 15.2041 16.2447 14.6671 15.0001L11.5141 7.59657L8.89895 14.2129C8.31309 15.7446 8.96838 16.2859 10.1889 16.2859C10.2862 16.2859 10.2862 16.7144 10.1889 16.7144H6.0618C5.98038 16.7144 5.98038 16.2859 6.0618 16.2859C6.94038 16.2859 7.40795 15.9679 8.23766 13.8044L11.8012 5.20771C11.8175 5.13143 12.0614 5.11214 12.0939 5.20771L16.1294 14.092L16.1289 14.0916Z" fill="white"/>
</g>
<defs>
<linearGradient id="paint0_linear_31_5959" x1="4.46486" y1="4.16229" x2="29.2059" y2="32.5787" gradientUnits="userSpaceOnUse">
<stop stop-color="#1A1E21"/>
<stop offset="1" stop-color="#06060A"/>
</linearGradient>
<clipPath id="clip0_31_5959">
<rect width="24" height="24" fill="white"/>
</clipPath>
</defs>
</svg>

<svg xmlns="http://www.w3.org/2000/svg" width="24" height="24" fill="none" viewBox="0 0 24 24"><g clip-path="url(#a)"><path fill="url(#b)" d="M0 0h24v24H0z"/><path fill="#fff" d="M16.129 14.092c.764 1.818 1.26 2.194 1.798 2.194.098 0 .098.428 0 .428H13.8c-.098 0-.098-.428 0-.428.895 0 1.404-.041.867-1.286l-3.153-7.403L8.9 14.213c-.586 1.532.07 2.073 1.29 2.073.097 0 .097.428 0 .428H6.062c-.082 0-.082-.428 0-.428.878 0 1.346-.318 2.176-2.482L11.8 5.208c.017-.077.26-.096.293 0z"/></g><defs><linearGradient id="b" x1="4.465" x2="29.206" y1="4.162" y2="32.579" gradientUnits="userSpaceOnUse"><stop stop-color="#1A1E21"/><stop offset="1" stop-color="#06060A"/></linearGradient><clipPath id="a"><path fill="#fff" d="M0 0h24v24H0z"/></clipPath></defs></svg>
